src/images/pages/dmt5_signals/no_hidden_fees.svg

<svg width="68" height="64" viewBox="0 0 68 64" fill="none" xmlns="http://www.w3.org/2000/svg">
<g clip-path="url(#clip0)">
<path d="M36.5224 30.1137H35.9619V20.0758H36.5224C38.8345 20.0758 40.8663 21.5579 41.4969 23.7811C41.7771 24.7916 42.8981 25.3979 43.9491 25.1284C45 24.859 45.6306 23.7811 45.3503 22.7705C44.2994 18.9305 40.6561 16.3032 36.5224 16.3032H35.9619V10.9137C35.9619 9.8358 35.0511 9.02737 34.0001 9.02737C32.8791 9.02737 32.0383 9.90316 32.0383 10.9137V16.3032H31.4778C29.0256 16.3032 26.7135 17.2463 25.032 18.8632C23.2804 20.5474 22.3696 22.7032 22.3696 25.0611C22.3696 29.9116 26.5034 33.8863 31.5479 33.8863H32.1084V43.8568H31.5479C29.2358 43.8568 27.204 42.3747 26.5734 40.2863C26.3632 39.4105 25.5925 38.7369 24.6116 38.7369C23.4906 38.7369 22.6499 39.6126 22.6499 40.6232C22.6499 40.8253 22.6499 40.96 22.7199 41.1621C23.841 45.0021 27.4142 47.6295 31.5479 47.6295H32.1084V53.019C32.1084 54.0969 33.0192 54.9053 34.0702 54.9053C35.1912 54.9053 36.0319 54.0295 36.0319 53.019V47.6295H36.5924C41.637 47.6295 45.7707 43.6547 45.7707 38.8042C45.7707 36.4463 44.7898 34.2232 43.1083 32.6063C41.2867 30.9895 38.9746 30.1137 36.5224 30.1137ZM31.4778 30.1137C28.6052 30.1137 26.2932 27.8905 26.2932 25.1284C26.2932 23.7811 26.8537 22.5011 27.7645 21.6253C28.7454 20.6821 30.0766 20.1432 31.4078 20.1432H31.9683V30.1137H31.4778ZM36.5224 43.9242H35.9619V33.8863H36.5224C37.9236 33.8863 39.1848 34.4253 40.1657 35.3684C41.1466 36.3116 41.637 37.5242 41.637 38.8716C41.7071 41.6337 39.395 43.9242 36.5224 43.9242Z" fill="#2A3052"/>
<path d="M34.0002 0C15.6437 0 0.720215 14.3495 0.720215 32C0.720215 49.6505 15.6437 64 34.0002 64C52.3568 64 67.2802 49.6505 67.2802 32C67.2802 14.3495 52.3568 0 34.0002 0ZM4.71381 32C4.71381 24.9263 7.44628 18.4589 12.0004 13.4737L16.9749 18.2568C17.3952 18.6611 17.8857 18.7958 18.3761 18.7958C18.8666 18.7958 19.357 18.5937 19.7774 18.2568C20.5481 17.5158 20.5481 16.3032 19.7774 15.5621L14.8029 10.7789C19.9876 6.46737 26.7136 3.77263 34.0703 3.77263C50.2549 3.77263 63.3567 16.4379 63.3567 31.9326C63.3567 39.0063 60.6242 45.4737 56.0701 50.459L51.0956 45.6758C50.3249 44.9347 49.0638 44.9347 48.2931 45.6758C47.5224 46.4168 47.5224 47.6295 48.2931 48.3705L53.2676 53.1537C48.0829 57.4653 41.3568 60.16 34.0002 60.16C17.8156 60.16 4.71381 47.5621 4.71381 32Z" fill="#2A3052"/>
</g>
<defs>
<clipPath id="clip0">
<rect width="66.56" height="64" fill="white" transform="translate(0.720215)"/>
</clipPath>
</defs>
</svg>

<svg width="68" height="64" fill="none" xmlns="http://www.w3.org/2000/svg"><g clip-path="url(#clip0)" fill="#2A3052"><path d="M36.522 30.114h-.56V20.076h.56c2.313 0 4.344 1.482 4.975 3.705.28 1.01 1.401 1.617 2.452 1.347 1.051-.269 1.682-1.347 1.401-2.358-1.05-3.84-4.694-6.467-8.828-6.467h-.56v-5.39c0-1.077-.91-1.886-1.962-1.886-1.12 0-1.962.876-1.962 1.887v5.39h-.56c-2.452 0-4.765.942-6.446 2.56-1.752 1.683-2.662 3.84-2.662 6.197 0 4.85 4.133 8.825 9.178 8.825h.56v9.97h-.56c-2.312 0-4.344-1.481-4.975-3.57a2.006 2.006 0 00-1.961-1.55c-1.121 0-1.962.877-1.962 1.887 0 .202 0 .337.07.54 1.121 3.84 4.694 6.467 8.828 6.467h.56v5.389c0 1.078.911 1.886 1.962 1.886 1.121 0 1.962-.876 1.962-1.886v-5.39h.56c5.045 0 9.179-3.974 9.179-8.825a8.6 8.6 0 00-2.663-6.198 9.85 9.85 0 00-6.586-2.492zm-5.044 0c-2.873 0-5.185-2.224-5.185-4.986 0-1.347.56-2.627 1.472-3.503a5.316 5.316 0 013.643-1.482h.56v9.97h-.49zm5.044 13.81h-.56V33.886h.56c1.402 0 2.663.54 3.644 1.482.98.944 1.471 2.156 1.471 3.504.07 2.762-2.242 5.052-5.115 5.052z"/><path d="M34 0C15.644 0 .72 14.35.72 32S15.644 64 34 64c18.357 0 33.28-14.35 33.28-32S52.357 0 34 0zM4.714 32c0-7.074 2.732-13.541 7.286-18.526l4.975 4.783c.42.404.91.539 1.401.539.49 0 .981-.202 1.401-.54a1.86 1.86 0 000-2.694l-4.974-4.783c5.185-4.312 11.91-7.006 19.267-7.006 16.185 0 29.287 12.665 29.287 28.16 0 7.073-2.733 13.54-7.287 18.526l-4.974-4.783a2.044 2.044 0 00-2.803 0 1.86 1.86 0 000 2.694l4.975 4.784C48.083 57.465 41.357 60.16 34 60.16 17.816 60.16 4.714 47.562 4.714 32z"/></g><defs><clipPath id="clip0"><path fill="#fff" transform="translate(.72)" d="M0 0h66.56v64H0z"/></clipPath></defs></svg>
